X:7
T:Father Hector's Reel
R:reel
C:Paul S. Cranford
O:Cape Breton Island
S:http://www.cranfordpub.com
D:currently unrecorded
B:The Cape Breton Fiddlers Collection
Z:psc
H:                                                        copyrights Cranford Publications, SOCAN
L:1/8
Q:333
M:C|
K:A
F|EA, A,/A,/A, EA,CE|Ac c/c/c BAFA|EA, A,/A,/A, EA,CE|A/c z/BA F2 AF|
EA, A,/A,/A, EA,CE|Ac c/c/c BABc|dBcA BAFA|EAcB A2 A||
||c|dB B/B/B  EGBd|cAeA fAec|dEBE  EGBd|cABE {E}A2 Ac|
dB B/B/B  EGBd|cAeA fAec|dEcE BcAF|EAcB A2 A|]
